img/svg/copy.svg

<svg viewBox="0 0 15 15" xmlns="http://www.w3.org/2000/svg">
    <rect width="15" height="15" fill="#E5E5E5" />
    <g id="&#208;&#165;&#208;&#181;&#208;&#180;&#208;&#181;&#209;&#128; UI"
        clip-path="url(#clip0_1_5)">
        <rect width="1920" height="1766" transform="translate(-568 -1170)" fill="#050611" />
        <g
            id="&#208;&#159;&#208;&#190;&#208;&#187;&#209;&#140;&#208;&#183;&#208;&#190;&#208;&#178;&#208;&#176;&#209;&#130;&#208;&#181;&#208;&#187;&#209;&#140;">
            <g id="Group 26">
                <path id="Rectangle 1"
                    d="M-135 -44H101V283C101 286.314 98.3137 289 95 289H-129C-132.314 289 -135 286.314 -135 283V-44Z"
                    fill="#18191C" />
                <g id="Group 35">
                    <g id="Group 34">
                        <g id="Group 33">
                            <path id="Icon"
                                d="M11.5625 5.875H13.1875C13.6362 5.875 14 6.23877 14 6.6875L14 12C14 13.1046 13.1046 14 12 14L6.6875 14C6.23877 14 5.875 13.6362 5.875 13.1875V11.5625M7.5 1L2.625 1C1.72754 1 1 1.72754 1 2.625L1 7.5C1 8.39746 1.72754 9.125 2.625 9.125L7.5 9.125C8.39746 9.125 9.125 8.39746 9.125 7.5L9.125 2.625C9.125 1.72754 8.39746 1 7.5 1Z"
                                stroke="#67686B" stroke-width="1.5" stroke-linecap="round" />
                        </g>
                    </g>
                </g>
            </g>
        </g>
    </g>
    <defs>
        <clipPath id="clip0_1_5">
            <rect width="1920" height="1766" fill="white" transform="translate(-568 -1170)" />
        </clipPath>
    </defs>
</svg>

<svg viewBox="0 0 15 15" xmlns="http://www.w3.org/2000/svg"><path fill="#E5E5E5" d="M0 0h15v15H0z"/><g id="Ð¥ÐµÐ´ÐµÑ UI" clip-path="url(#clip0_1_5)"><path transform="translate(-568 -1170)" fill="#050611" d="M0 0h1920v1766H0z"/><g id="ÐÐ¾Ð»ÑÐ·Ð¾Ð²Ð°ÑÐµÐ»Ñ"><g id="Group 26"><path id="Rectangle 1" d="M-135-44h236v327a6 6 0 01-6 6h-224a6 6 0 01-6-6V-44z" fill="#18191C"/><g id="Group 35"><g id="Group 34"><g id="Group 33"><path id="Icon" d="M11.563 5.875h1.624c.45 0 .813.364.813.813V12a2 2 0 01-2 2H6.687a.813.813 0 01-.812-.813v-1.624M7.5 1H2.625C1.728 1 1 1.728 1 2.625V7.5c0 .897.728 1.625 1.625 1.625H7.5c.897 0 1.625-.728 1.625-1.625V2.625C9.125 1.728 8.397 1 7.5 1z" stroke="#67686B" stroke-width="1.5" stroke-linecap="round"/></g></g></g></g></g></g><defs><clipPath id="clip0_1_5"><path fill="#fff" transform="translate(-568 -1170)" d="M0 0h1920v1766H0z"/></clipPath></defs></svg>
